X: 20622
T: ALMINA'S FAVORITE
C:
%R: jig
B: Elias Howe "The Musician's Companion" 1843 p.62 #2
S: http://imslp.org/wiki/The_Musician's_Companion_(Howe,_Elias)
Z: 2015 John Chambers <jc:trillian.mit.edu>
M: 6/8
L: 1/8
K: Bb
% - - - - - - - - - - - - - - - - - - - - - - - - -
F |\
F>GA B>cd | e>dc dcB | (A<ff) (B<gg) | (B<bb) (B<ff) |\
F>GA B>cd | cde fga | bge dec | {d}cBB B2 :|
|: A |\
(F<BB) (G<BB) | (F<BB) (G<BB) | FB/B/B Bcd | e2d c2B |\
FB/B/B GB/B/B | FB/B/B GB/B/B | bge dec | {d}cBB B2 :|
% - - - - - - - - - - - - - - - - - - - - - - - - -

%%sep 1 1 500

